report_00007_2020-12-11T15:55:29.892Z/mainthread-work-breakdown/comparison/line/3_vs_4.svg

<svg width="640" height="500" xmlns="http://www.w3.org/2000/svg" xmlns:xlink="http://www.w3.org/1999/xlink"><path fill="#fff" d="M0 0h640v500H0z"/><defs><path id="d" stroke-width=".222" stroke="currentColor" d="M-1-1h2v2h-2z"/><path id="b" stroke-width=".222" stroke="currentColor" d="M0-1.33l-1.33 2h2.66z"/><path id="f" stroke-width=".222" stroke="currentColor" d="M0 1.33L1.265.411.782-1.067l-1.564-.009-.483 1.487z"/><use xlink:href="#b" id="c" stroke="currentColor" transform="rotate(180)"/><use xlink:href="#d" id="e" stroke="currentColor" transform="rotate(45)"/><circle id="a" stroke-width=".222" stroke="currentColor" cx="0" cy="0" r="1"/></defs><g fill="none" color="#000" stroke="currentColor"><path stroke="#000" d="M62.2 401.7h9m543.8 0h-9"/><text transform="translate(53.9 405.6)" stroke="none" fill="#000" font-family="Arial" font-size="12" text-anchor="end"><tspan>800</tspan></text></g><g fill="none" color="#000" stroke="currentColor"><path stroke="#000" d="M62.2 332.9h9m543.8 0h-9"/><text transform="translate(53.9 336.8)" stroke="none" fill="#000" font-family="Arial" font-size="12" text-anchor="end"><tspan>1000</tspan></text></g><g fill="none" color="#000" stroke="currentColor"><path stroke="#000" d="M62.2 264.1h9m543.8 0h-9"/><text transform="translate(53.9 268)" stroke="none" fill="#000" font-family="Arial" font-size="12" text-anchor="end"><tspan>1200</tspan></text></g><g fill="none" color="#000" stroke="currentColor"><path stroke="#000" d="M62.2 195.3h9m543.8 0h-9"/><text transform="translate(53.9 199.2)" stroke="none" fill="#000" font-family="Arial" font-size="12" text-anchor="end"><tspan>1400</tspan></text></g><g fill="none" color="#000" stroke="currentColor"><path stroke="#000" d="M62.2 126.5h9m543.8 0h-9"/><text transform="translate(53.9 130.4)" stroke="none" fill="#000" font-family="Arial" font-size="12" text-anchor="end"><tspan>1600</tspan></text></g><g fill="none" color="#000" stroke="currentColor"><path stroke="#000" d="M62.2 57.7h9m543.8 0h-9"/><text transform="translate(53.9 61.6)" stroke="none" fill="#000" font-family="Arial" font-size="12" text-anchor="end"><tspan>1800</tspan></text></g><g fill="none" color="#000" stroke="currentColor"><path stroke="#000" d="M62.2 428v-9m0-400.9v9"/><text transform="translate(62.2 449.9)" stroke="none" fill="#000" font-family="Arial" font-size="12" text-anchor="middle"><tspan>0</tspan></text></g><g fill="none" color="#000" stroke="currentColor"><path stroke="#000" d="M118 428v-9m0-400.9v9"/><text transform="translate(118 449.9)" stroke="none" fill="#000" font-family="Arial" font-size="12" text-anchor="middle"><tspan>10</tspan></text></g><g fill="none" color="#000" stroke="currentColor"><path stroke="#000" d="M173.9 428v-9m0-400.9v9"/><text transform="translate(173.9 449.9)" stroke="none" fill="#000" font-family="Arial" font-size="12" text-anchor="middle"><tspan>20</tspan></text></g><g fill="none" color="#000" stroke="currentColor"><path stroke="#000" d="M229.7 428v-9m0-400.9v9"/><text transform="translate(229.7 449.9)" stroke="none" fill="#000" font-family="Arial" font-size="12" text-anchor="middle"><tspan>30</tspan></text></g><g fill="none" color="#000" stroke="currentColor"><path stroke="#000" d="M285.6 428v-9m0-400.9v9"/><text transform="translate(285.6 449.9)" stroke="none" fill="#000" font-family="Arial" font-size="12" text-anchor="middle"><tspan>40</tspan></text></g><g fill="none" color="#000" stroke="currentColor"><path stroke="#000" d="M341.4 428v-9m0-400.9v9"/><text transform="translate(341.4 449.9)" stroke="none" fill="#000" font-family="Arial" font-size="12" text-anchor="middle"><tspan>50</tspan></text></g><g fill="none" color="#000" stroke="currentColor"><path stroke="#000" d="M397.2 428v-9m0-400.9v9"/><text transform="translate(397.2 449.9)" stroke="none" fill="#000" font-family="Arial" font-size="12" text-anchor="middle"><tspan>60</tspan></text></g><g fill="none" color="#000" stroke="currentColor"><path stroke="#000" d="M453.1 428v-9m0-400.9v9"/><text transform="translate(453.1 449.9)" stroke="none" fill="#000" font-family="Arial" font-size="12" text-anchor="middle"><tspan>70</tspan></text></g><g fill="none" color="#000" stroke="currentColor"><path stroke="#000" d="M508.9 428v-9m0-400.9v9"/><text transform="translate(508.9 449.9)" stroke="none" fill="#000" font-family="Arial" font-size="12" text-anchor="middle"><tspan>80</tspan></text></g><g fill="none" color="#000" stroke="currentColor"><path stroke="#000" d="M564.7 428v-9m0-400.9v9"/><text transform="translate(564.7 449.9)" stroke="none" fill="#000" font-family="Arial" font-size="12" text-anchor="middle"><tspan>90</tspan></text></g><path stroke="#000" d="M62.2 18.1V428H615V18.1H62.2z" fill="none" color="#000"/><text transform="translate(279.8 467.9)" stroke="none" fill="#000" font-family="Arial" font-size="12" text-anchor="end" color="#000"><tspan>pages+cached+nointeractive</tspan></text><path stroke="#9400D3" d="M288.1 464h42.2M62.2 45l5.6 14.7 5.6-27.2L79 57.8l5.5-5.6 5.6.5 5.6-4.4 5.6 11.6 5.6-22.1 5.6 1.2 5.5 15.6 5.6 9.7 5.6-19.5 5.6 15.2 5.6-2.2 5.6.1 5.5-4.1 5.6 1.2 5.6-4.8 5.6 11.6 5.6-8.8 5.6 9 5.5.1 5.6-.2 5.6-35.9 5.6 36.8 5.6 12.4 5.6-9.7 5.5-8.8 5.6-6.6 5.6 1.8 5.6 11.4 5.6-12.2 5.6 12.5 5.6 8.7 5.5-17.5 5.6-11.7 5.6 17.4 5.6-9.1 5.6 8.8 5.6 5 5.5-14.7 5.6 1.3 5.6-15.2 5.6 25.1 5.6-7.4 5.6 5.8 5.5 3.1 5.6-14.5 5.6-3.9 5.6 18.2 5.6 1.6 5.6-9.7 5.5 2.5 5.6-6.1 5.6-.6 5.6-8.7 5.6 20.5 5.6-2.9 5.5-16.8 5.6 8 5.6 4.1 5.6 5.9 5.6-10.2 5.6-8 5.5 1.4 5.6 9.7 5.6-6.4 5.6-1.9 5.6-6.5 5.6-.8 5.6 18.1 5.5-12.9 5.6-4.2 5.6 7.5 5.6 14.5 5.6-1.7 5.6-12.1 5.5 5.3 5.6-1.9 5.6-6 5.6 10.2 5.6-1.3 5.6-6.7 5.5 23.6 5.6-19.1 5.6-4.8L548 38l5.6 19.2 5.6-10.6 5.5 10.3 5.6 1.3 5.6-6 5.6-4.1 5.6-3.1 5.6 20.4 5.5-13.2 5.6 2.8 5.6-3 5.6-7.7" fill="none" color="#000"/><text transform="translate(279.8 485.9)" stroke="none" fill="#000" font-family="Arial" font-size="12" text-anchor="end" color="#000"><tspan>pages+cached+noadtech</tspan></text><path stroke="#009E73" d="M288.1 482h42.2M62.2 402.5l5.6-.4 5.6 15.2L79 393l5.5 11.6 5.6-1.9 5.6 1.1 5.6-5.2 5.6 20.5 5.6-11.7 5.5-14.8 5.6 3.1 5.6 21 5.6-12.3 5.6 2.2 5.6 6.6 5.5-5.9 5.6-21.1 5.6 21 5.6-2.6 5.6 10.8 5.6-13.4 5.5 1 5.6-5 5.6 18.7 5.6-11.3 5.6-6.8 5.6 1.7 5.5-3.6 5.6 1.3 5.6-32.7 5.6 51 5.6-15.8 5.6-2.4 5.6 22 5.5-20 5.6-1 5.6 15.5 5.6-19.6 5.6 10 5.6-.8 5.5-.1 5.6-7.8 5.6-.1 5.6 3 5.6-13.9 5.6 14.4 5.5 13.3 5.6-20.3 5.6 15.8 5.6-15.5 5.6 14.9 5.6-7.9 5.5 1.7 5.6-2.3 5.6-7.3 5.6 1.4 5.6 15.5 5.6-5 5.5-5.3 5.6-.5 5.6.4 5.6 6.1 5.6 8.9 5.6-17.7 5.5 3.4 5.6 1.5 5.6 16.1 5.6-2 5.6-22 5.6-2.1 5.6 7.8 5.5.6 5.6.5 5.6.7 5.6 12.7 5.6-12 5.6 9.2 5.5-7.8 5.6 8.2 5.6-13.6 5.6 18.4 5.6-15.5 5.6 2 5.5.2 5.6-1.8 5.6-2.8 5.6 5.4 5.6-4.1 5.6 12.4 5.5-5 5.6 3.9 5.6-20.3 5.6 12.1 5.6-7.5 5.6-35.6 5.5 37.2 5.6-9.1 5.6 11.1 5.6 11.4" fill="none" color="#000"/><text transform="translate(554.4 467.9)" stroke="none" fill="#000" font-family="Arial" font-size="12" text-anchor="end" color="#000"><tspan>score p10=2017</tspan></text><path stroke="#56B4E9" d="M562.7 464h42.2" fill="none" color="#000"/><g><text transform="translate(554.4 485.9)" stroke="none" fill="#000" font-family="Arial" font-size="12" text-anchor="end" color="#000"><tspan>score median=4000</tspan></text><path stroke="#E69F00" d="M562.7 482h42.2" fill="none" color="#000"/></g><g fill="none" color="#000" stroke="currentColor"><path stroke="#000" d="M62.2 18.1V428H615V18.1H62.2z"/></g></svg>

<?xml version="1.0" encoding="utf-8"  standalone="no"?>
<svg 
 width="640" height="500"
 viewBox="0 0 640 500"
 xmlns="http://www.w3.org/2000/svg"
 xmlns:xlink="http://www.w3.org/1999/xlink"
>

<title>Gnuplot</title>
<desc>Produced by GNUPLOT 5.4 patchlevel 0 </desc>

<g id="gnuplot_canvas">

<rect x="0" y="0" width="640" height="500" fill="#ffffff"/>
<defs>

	<circle id='gpDot' r='0.5' stroke-width='0.5' stroke='currentColor'/>
	<path id='gpPt0' stroke-width='0.222' stroke='currentColor' d='M-1,0 h2 M0,-1 v2'/>
	<path id='gpPt1' stroke-width='0.222' stroke='currentColor' d='M-1,-1 L1,1 M1,-1 L-1,1'/>
	<path id='gpPt2' stroke-width='0.222' stroke='currentColor' d='M-1,0 L1,0 M0,-1 L0,1 M-1,-1 L1,1 M-1,1 L1,-1'/>
	<rect id='gpPt3' stroke-width='0.222' stroke='currentColor' x='-1' y='-1' width='2' height='2'/>
	<rect id='gpPt4' stroke-width='0.222' stroke='currentColor' fill='currentColor' x='-1' y='-1' width='2' height='2'/>
	<circle id='gpPt5' stroke-width='0.222' stroke='currentColor' cx='0' cy='0' r='1'/>
	<use xlink:href='#gpPt5' id='gpPt6' fill='currentColor' stroke='none'/>
	<path id='gpPt7' stroke-width='0.222' stroke='currentColor' d='M0,-1.33 L-1.33,0.67 L1.33,0.67 z'/>
	<use xlink:href='#gpPt7' id='gpPt8' fill='currentColor' stroke='none'/>
	<use xlink:href='#gpPt7' id='gpPt9' stroke='currentColor' transform='rotate(180)'/>
	<use xlink:href='#gpPt9' id='gpPt10' fill='currentColor' stroke='none'/>
	<use xlink:href='#gpPt3' id='gpPt11' stroke='currentColor' transform='rotate(45)'/>
	<use xlink:href='#gpPt11' id='gpPt12' fill='currentColor' stroke='none'/>
	<path id='gpPt13' stroke-width='0.222' stroke='currentColor' d='M0,1.330 L1.265,0.411 L0.782,-1.067 L-0.782,-1.076 L-1.265,0.411 z'/>
	<use xlink:href='#gpPt13' id='gpPt14' fill='currentColor' stroke='none'/>
	<filter id='textbox' filterUnits='objectBoundingBox' x='0' y='0' height='1' width='1'>
	  <feFlood flood-color='#FFFFFF' flood-opacity='1' result='bgnd'/>
	  <feComposite in='SourceGraphic' in2='bgnd' operator='atop'/>
	</filter>
	<filter id='greybox' filterUnits='objectBoundingBox' x='0' y='0' height='1' width='1'>
	  <feFlood flood-color='lightgrey' flood-opacity='1' result='grey'/>
	  <feComposite in='SourceGraphic' in2='grey' operator='atop'/>
	</filter>
</defs>
<g fill="none" color="#FFFFFF" stroke="black" stroke-width="1.00" stroke-linecap="butt" stroke-linejoin="miter">
</g>
<g fill="none" color="black" stroke="currentColor" stroke-width="1.00" stroke-linecap="butt" stroke-linejoin="miter">
	<path stroke='black'  d='M62.2,401.7 L71.2,401.7 M615.0,401.7 L606.0,401.7  '/>	<g transform="translate(53.9,405.6)" stroke="none" fill="black" font-family="Arial" font-size="12.00"  text-anchor="end">
		<text><tspan font-family="Arial" > 800</tspan></text>
	</g>
</g>
<g fill="none" color="black" stroke="currentColor" stroke-width="1.00" stroke-linecap="butt" stroke-linejoin="miter">
	<path stroke='black'  d='M62.2,332.9 L71.2,332.9 M615.0,332.9 L606.0,332.9  '/>	<g transform="translate(53.9,336.8)" stroke="none" fill="black" font-family="Arial" font-size="12.00"  text-anchor="end">
		<text><tspan font-family="Arial" > 1000</tspan></text>
	</g>
</g>
<g fill="none" color="black" stroke="currentColor" stroke-width="1.00" stroke-linecap="butt" stroke-linejoin="miter">
	<path stroke='black'  d='M62.2,264.1 L71.2,264.1 M615.0,264.1 L606.0,264.1  '/>	<g transform="translate(53.9,268.0)" stroke="none" fill="black" font-family="Arial" font-size="12.00"  text-anchor="end">
		<text><tspan font-family="Arial" > 1200</tspan></text>
	</g>
</g>
<g fill="none" color="black" stroke="currentColor" stroke-width="1.00" stroke-linecap="butt" stroke-linejoin="miter">
	<path stroke='black'  d='M62.2,195.3 L71.2,195.3 M615.0,195.3 L606.0,195.3  '/>	<g transform="translate(53.9,199.2)" stroke="none" fill="black" font-family="Arial" font-size="12.00"  text-anchor="end">
		<text><tspan font-family="Arial" > 1400</tspan></text>
	</g>
</g>
<g fill="none" color="black" stroke="currentColor" stroke-width="1.00" stroke-linecap="butt" stroke-linejoin="miter">
	<path stroke='black'  d='M62.2,126.5 L71.2,126.5 M615.0,126.5 L606.0,126.5  '/>	<g transform="translate(53.9,130.4)" stroke="none" fill="black" font-family="Arial" font-size="12.00"  text-anchor="end">
		<text><tspan font-family="Arial" > 1600</tspan></text>
	</g>
</g>
<g fill="none" color="black" stroke="currentColor" stroke-width="1.00" stroke-linecap="butt" stroke-linejoin="miter">
	<path stroke='black'  d='M62.2,57.7 L71.2,57.7 M615.0,57.7 L606.0,57.7  '/>	<g transform="translate(53.9,61.6)" stroke="none" fill="black" font-family="Arial" font-size="12.00"  text-anchor="end">
		<text><tspan font-family="Arial" > 1800</tspan></text>
	</g>
</g>
<g fill="none" color="black" stroke="currentColor" stroke-width="1.00" stroke-linecap="butt" stroke-linejoin="miter">
	<path stroke='black'  d='M62.2,428.0 L62.2,419.0 M62.2,18.1 L62.2,27.1  '/>	<g transform="translate(62.2,449.9)" stroke="none" fill="black" font-family="Arial" font-size="12.00"  text-anchor="middle">
		<text><tspan font-family="Arial" > 0</tspan></text>
	</g>
</g>
<g fill="none" color="black" stroke="currentColor" stroke-width="1.00" stroke-linecap="butt" stroke-linejoin="miter">
	<path stroke='black'  d='M118.0,428.0 L118.0,419.0 M118.0,18.1 L118.0,27.1  '/>	<g transform="translate(118.0,449.9)" stroke="none" fill="black" font-family="Arial" font-size="12.00"  text-anchor="middle">
		<text><tspan font-family="Arial" > 10</tspan></text>
	</g>
</g>
<g fill="none" color="black" stroke="currentColor" stroke-width="1.00" stroke-linecap="butt" stroke-linejoin="miter">
	<path stroke='black'  d='M173.9,428.0 L173.9,419.0 M173.9,18.1 L173.9,27.1  '/>	<g transform="translate(173.9,449.9)" stroke="none" fill="black" font-family="Arial" font-size="12.00"  text-anchor="middle">
		<text><tspan font-family="Arial" > 20</tspan></text>
	</g>
</g>
<g fill="none" color="black" stroke="currentColor" stroke-width="1.00" stroke-linecap="butt" stroke-linejoin="miter">
	<path stroke='black'  d='M229.7,428.0 L229.7,419.0 M229.7,18.1 L229.7,27.1  '/>	<g transform="translate(229.7,449.9)" stroke="none" fill="black" font-family="Arial" font-size="12.00"  text-anchor="middle">
		<text><tspan font-family="Arial" > 30</tspan></text>
	</g>
</g>
<g fill="none" color="black" stroke="currentColor" stroke-width="1.00" stroke-linecap="butt" stroke-linejoin="miter">
	<path stroke='black'  d='M285.6,428.0 L285.6,419.0 M285.6,18.1 L285.6,27.1  '/>	<g transform="translate(285.6,449.9)" stroke="none" fill="black" font-family="Arial" font-size="12.00"  text-anchor="middle">
		<text><tspan font-family="Arial" > 40</tspan></text>
	</g>
</g>
<g fill="none" color="black" stroke="currentColor" stroke-width="1.00" stroke-linecap="butt" stroke-linejoin="miter">
	<path stroke='black'  d='M341.4,428.0 L341.4,419.0 M341.4,18.1 L341.4,27.1  '/>	<g transform="translate(341.4,449.9)" stroke="none" fill="black" font-family="Arial" font-size="12.00"  text-anchor="middle">
		<text><tspan font-family="Arial" > 50</tspan></text>
	</g>
</g>
<g fill="none" color="black" stroke="currentColor" stroke-width="1.00" stroke-linecap="butt" stroke-linejoin="miter">
	<path stroke='black'  d='M397.2,428.0 L397.2,419.0 M397.2,18.1 L397.2,27.1  '/>	<g transform="translate(397.2,449.9)" stroke="none" fill="black" font-family="Arial" font-size="12.00"  text-anchor="middle">
		<text><tspan font-family="Arial" > 60</tspan></text>
	</g>
</g>
<g fill="none" color="black" stroke="currentColor" stroke-width="1.00" stroke-linecap="butt" stroke-linejoin="miter">
	<path stroke='black'  d='M453.1,428.0 L453.1,419.0 M453.1,18.1 L453.1,27.1  '/>	<g transform="translate(453.1,449.9)" stroke="none" fill="black" font-family="Arial" font-size="12.00"  text-anchor="middle">
		<text><tspan font-family="Arial" > 70</tspan></text>
	</g>
</g>
<g fill="none" color="black" stroke="currentColor" stroke-width="1.00" stroke-linecap="butt" stroke-linejoin="miter">
	<path stroke='black'  d='M508.9,428.0 L508.9,419.0 M508.9,18.1 L508.9,27.1  '/>	<g transform="translate(508.9,449.9)" stroke="none" fill="black" font-family="Arial" font-size="12.00"  text-anchor="middle">
		<text><tspan font-family="Arial" > 80</tspan></text>
	</g>
</g>
<g fill="none" color="black" stroke="currentColor" stroke-width="1.00" stroke-linecap="butt" stroke-linejoin="miter">
	<path stroke='black'  d='M564.7,428.0 L564.7,419.0 M564.7,18.1 L564.7,27.1  '/>	<g transform="translate(564.7,449.9)" stroke="none" fill="black" font-family="Arial" font-size="12.00"  text-anchor="middle">
		<text><tspan font-family="Arial" > 90</tspan></text>
	</g>
</g>
<g fill="none" color="black" stroke="currentColor" stroke-width="1.00" stroke-linecap="butt" stroke-linejoin="miter">
</g>
<g fill="none" color="black" stroke="currentColor" stroke-width="1.00" stroke-linecap="butt" stroke-linejoin="miter">
	<path stroke='black'  d='M62.2,18.1 L62.2,428.0 L615.0,428.0 L615.0,18.1 L62.2,18.1 Z  '/></g>
<g fill="none" color="black" stroke="currentColor" stroke-width="1.00" stroke-linecap="butt" stroke-linejoin="miter">
</g>
	<g id="gnuplot_plot_1" ><title>pages+cached+nointeractive</title>
<g fill="none" color="black" stroke="currentColor" stroke-width="1.00" stroke-linecap="butt" stroke-linejoin="miter">
	<g transform="translate(279.8,467.9)" stroke="none" fill="black" font-family="Arial" font-size="12.00"  text-anchor="end">
		<text><tspan font-family="Arial" >pages+cached+nointeractive</tspan></text>
	</g>
</g>
<g fill="none" color="black" stroke="currentColor" stroke-width="1.00" stroke-linecap="butt" stroke-linejoin="miter">
	<path stroke='rgb(148,   0, 211)'  d='M288.1,464.0 L330.3,464.0 M62.2,45.0 L67.8,59.7 L73.4,32.5 L79.0,57.8 L84.5,52.2 L90.1,52.7
		L95.7,48.3 L101.3,59.9 L106.9,37.8 L112.5,39.0 L118.0,54.6 L123.6,64.3 L129.2,44.8 L134.8,60.0
		L140.4,57.8 L146.0,57.9 L151.5,53.8 L157.1,55.0 L162.7,50.2 L168.3,61.8 L173.9,53.0 L179.5,62.0
		L185.0,62.1 L190.6,61.9 L196.2,26.0 L201.8,62.8 L207.4,75.2 L213.0,65.5 L218.5,56.7 L224.1,50.1
		L229.7,51.9 L235.3,63.3 L240.9,51.1 L246.5,63.6 L252.1,72.3 L257.6,54.8 L263.2,43.1 L268.8,60.5
		L274.4,51.4 L280.0,60.2 L285.6,65.2 L291.1,50.5 L296.7,51.8 L302.3,36.6 L307.9,61.7 L313.5,54.3
		L319.1,60.1 L324.6,63.2 L330.2,48.7 L335.8,44.8 L341.4,63.0 L347.0,64.6 L352.6,54.9 L358.1,57.4
		L363.7,51.3 L369.3,50.7 L374.9,42.0 L380.5,62.5 L386.1,59.6 L391.6,42.8 L397.2,50.8 L402.8,54.9
		L408.4,60.8 L414.0,50.6 L419.6,42.6 L425.1,44.0 L430.7,53.7 L436.3,47.3 L441.9,45.4 L447.5,38.9
		L453.1,38.1 L458.7,56.2 L464.2,43.3 L469.8,39.1 L475.4,46.6 L481.0,61.1 L486.6,59.4 L492.2,47.3
		L497.7,52.6 L503.3,50.7 L508.9,44.7 L514.5,54.9 L520.1,53.6 L525.7,46.9 L531.2,70.5 L536.8,51.4
		L542.4,46.6 L548.0,38.0 L553.6,57.2 L559.2,46.6 L564.7,56.9 L570.3,58.2 L575.9,52.2 L581.5,48.1
		L587.1,45.0 L592.7,65.4 L598.2,52.2 L603.8,55.0 L609.4,52.0 L615.0,44.3  '/></g>
	</g>
	<g id="gnuplot_plot_2" ><title>pages+cached+noadtech</title>
<g fill="none" color="black" stroke="currentColor" stroke-width="1.00" stroke-linecap="butt" stroke-linejoin="miter">
	<g transform="translate(279.8,485.9)" stroke="none" fill="black" font-family="Arial" font-size="12.00"  text-anchor="end">
		<text><tspan font-family="Arial" >pages+cached+noadtech</tspan></text>
	</g>
</g>
<g fill="none" color="black" stroke="currentColor" stroke-width="1.00" stroke-linecap="butt" stroke-linejoin="miter">
	<path stroke='rgb(  0, 158, 115)'  d='M288.1,482.0 L330.3,482.0 M62.2,402.5 L67.8,402.1 L73.4,417.3 L79.0,393.0 L84.5,404.6 L90.1,402.7
		L95.7,403.8 L101.3,398.6 L106.9,419.1 L112.5,407.4 L118.0,392.6 L123.6,395.7 L129.2,416.7 L134.8,404.4
		L140.4,406.6 L146.0,413.2 L151.5,407.3 L157.1,386.2 L162.7,407.2 L168.3,404.6 L173.9,415.4 L179.5,402.0
		L185.0,403.0 L190.6,398.0 L196.2,416.7 L201.8,405.4 L207.4,398.6 L213.0,400.3 L218.5,396.7 L224.1,398.0
		L229.7,365.3 L235.3,416.3 L240.9,400.5 L246.5,398.1 L252.1,420.1 L257.6,400.1 L263.2,399.1 L268.8,414.6
		L274.4,395.0 L280.0,405.0 L285.6,404.2 L291.1,404.1 L296.7,396.3 L302.3,396.2 L307.9,399.2 L313.5,385.3
		L319.1,399.7 L324.6,413.0 L330.2,392.7 L335.8,408.5 L341.4,393.0 L347.0,407.9 L352.6,400.0 L358.1,401.7
		L363.7,399.4 L369.3,392.1 L374.9,393.5 L380.5,409.0 L386.1,404.0 L391.6,398.7 L397.2,398.2 L402.8,398.6
		L408.4,404.7 L414.0,413.6 L419.6,395.9 L425.1,399.3 L430.7,400.8 L436.3,416.9 L441.9,414.9 L447.5,392.9
		L453.1,390.8 L458.7,398.6 L464.2,399.2 L469.8,399.7 L475.4,400.4 L481.0,413.1 L486.6,401.1 L492.2,410.3
		L497.7,402.5 L503.3,410.7 L508.9,397.1 L514.5,415.5 L520.1,400.0 L525.7,402.0 L531.2,402.2 L536.8,400.4
		L542.4,397.6 L548.0,403.0 L553.6,398.9 L559.2,411.3 L564.7,406.3 L570.3,410.2 L575.9,389.9 L581.5,402.0
		L587.1,394.5 L592.7,358.9 L598.2,396.1 L603.8,387.0 L609.4,398.1 L615.0,409.5  '/></g>
	</g>
	<g id="gnuplot_plot_3" ><title>score p10=2017</title>
<g fill="none" color="black" stroke="currentColor" stroke-width="1.00" stroke-linecap="butt" stroke-linejoin="miter">
	<g transform="translate(554.4,467.9)" stroke="none" fill="black" font-family="Arial" font-size="12.00"  text-anchor="end">
		<text><tspan font-family="Arial" >score p10=2017</tspan></text>
	</g>
</g>
<g fill="none" color="black" stroke="currentColor" stroke-width="1.00" stroke-linecap="butt" stroke-linejoin="miter">
	<path stroke='rgb( 86, 180, 233)'  d='M562.7,464.0 L604.9,464.0  '/></g>
	</g>
	<g id="gnuplot_plot_4" ><title>score median=4000</title>
<g fill="none" color="black" stroke="currentColor" stroke-width="1.00" stroke-linecap="butt" stroke-linejoin="miter">
	<g transform="translate(554.4,485.9)" stroke="none" fill="black" font-family="Arial" font-size="12.00"  text-anchor="end">
		<text><tspan font-family="Arial" >score median=4000</tspan></text>
	</g>
</g>
<g fill="none" color="black" stroke="currentColor" stroke-width="1.00" stroke-linecap="butt" stroke-linejoin="miter">
	<path stroke='rgb(230, 159,   0)'  d='M562.7,482.0 L604.9,482.0  '/></g>
	</g>
<g fill="none" color="#FFFFFF" stroke="rgb(230, 159,   0)" stroke-width="2.00" stroke-linecap="butt" stroke-linejoin="miter">
</g>
<g fill="none" color="black" stroke="currentColor" stroke-width="2.00" stroke-linecap="butt" stroke-linejoin="miter">
</g>
<g fill="none" color="black" stroke="black" stroke-width="1.00" stroke-linecap="butt" stroke-linejoin="miter">
</g>
<g fill="none" color="black" stroke="currentColor" stroke-width="1.00" stroke-linecap="butt" stroke-linejoin="miter">
	<path stroke='black'  d='M62.2,18.1 L62.2,428.0 L615.0,428.0 L615.0,18.1 L62.2,18.1 Z  '/></g>
<g fill="none" color="black" stroke="currentColor" stroke-width="1.00" stroke-linecap="butt" stroke-linejoin="miter">
</g>
</g>
</svg>
